24x24/apps/connectagram.svg

<svg xmlns="http://www.w3.org/2000/svg" width="24" height="24" version="1">
 <rect style="opacity:0.2" width="20" height="20" x="2" y="2.5" rx="6" ry="6"/>
 <rect style="fill:#2f9a2f" width="20" height="20" x="2" y="2" rx="6" ry="6"/>
 <path style="opacity:0.2;fill:#f4f4f7" d="M 8,2 C 4.676,2 2,4.676 2,8 v 0.5 c 0,-3.324 2.676,-6 6,-6 h 8 c 3.324,0 6,2.676 6,6 V 8 C 22,4.676 19.324,2 16,2 Z"/>
 <path style="opacity:0.2" d="M 16,16.783409 C 15.554848,17.02012 15.090807,17.19873 14.607874,17.319239 14.124927,17.439746 13.620992,17.5 13.096064,17.5 11.529654,17.5 10.288711,17.052399 9.3732283,16.157199 8.4577418,15.257694 7.9999994,14.039706 8,12.503229 7.9999994,10.962456 8.4577418,9.7444667 9.3732283,8.8492578 10.28871,7.9497622 11.529654,7.5000106 13.096063,7.5 c 0.524928,1.06e-5 1.028864,0.060264 1.511811,0.1807617 C 15.090807,7.8012794 15.554848,7.9798894 16,8.2165917 V 10.100132 C 15.550648,9.7859583 15.107606,9.5557022 14.670867,9.4093633 14.234114,9.2630406 13.934294,9.189875 13.45136,9.1898672 c -0.865096,7.8e-6 -1.545411,0.2840622 -2.040945,0.8521628 -0.495542,0.568114 -0.743377,1.46271 -0.743374,2.461199 -3e-6,0.994193 0.247832,1.886637 0.743374,2.454741 0.495534,0.568111 1.175849,0.852164 2.040945,0.852163 0.482934,10e-7 0.782754,-0.07317 1.219507,-0.219496 C 15.107606,15.444308 15.550648,15.214052 16,14.899868 v 1.883541"/>
 <path style="fill:#f4f4f7" d="M 16,16.283409 C 15.554848,16.52012 15.090807,16.69873 14.607874,16.819239 14.124927,16.939746 13.620992,17 13.096064,17 11.529654,17 10.288711,16.552399 9.3732283,15.657199 8.4577418,14.757694 7.9999994,13.539706 8,12.003229 7.9999994,10.462456 8.4577418,9.2444667 9.3732283,8.3492578 10.28871,7.4497622 11.529654,7.0000106 13.096063,7 c 0.524928,1.06e-5 1.028864,0.060264 1.511811,0.1807617 C 15.090807,7.3012794 15.554848,7.4798894 16,7.7165917 V 9.6001322 C 15.550648,9.2859583 15.107606,9.0557022 14.670867,8.9093633 14.234114,8.7630406 13.934294,8.689875 13.45136,8.6898672 c -0.865096,7.8e-6 -1.545411,0.2840622 -2.040945,0.8521628 -0.495542,0.568114 -0.743377,1.46271 -0.743374,2.461199 -3e-6,0.994193 0.247832,1.886637 0.743374,2.454741 0.495534,0.568111 1.175849,0.852164 2.040945,0.852163 0.482934,10e-7 0.782754,-0.07317 1.219507,-0.219496 C 15.107606,14.944308 15.550648,14.714052 16,14.399868 v 1.883541"/>
</svg>

<svg xmlns="http://www.w3.org/2000/svg" width="24" height="24" version="1"><rect style="opacity:.2" width="20" height="20" x="2" y="2.5" rx="6" ry="6"/><rect style="fill:#2f9a2f" width="20" height="20" x="2" y="2" rx="6" ry="6"/><path style="opacity:.2;fill:#f4f4f7" d="M8 2C4.676 2 2 4.676 2 8v.5c0-3.324 2.676-6 6-6h8c3.324 0 6 2.676 6 6V8c0-3.324-2.676-6-6-6z"/><path style="opacity:.2" d="M16 16.783a6.102 6.102 0 0 1-2.904.717c-1.566 0-2.807-.448-3.723-1.343C8.458 15.257 8 14.04 8 12.503c0-1.54.458-2.759 1.373-3.654.916-.9 2.157-1.349 3.723-1.349.525 0 1.029.06 1.512.18.483.121.947.3 1.392.537V10.1a5.243 5.243 0 0 0-1.33-.69c-.436-.147-.736-.22-1.219-.22-.865 0-1.545.284-2.04.852-.496.568-.744 1.463-.744 2.461 0 .994.248 1.887.743 2.455.496.568 1.176.852 2.041.852.483 0 .783-.073 1.22-.22.437-.146.88-.376 1.329-.69v1.883"/><path style="fill:#f4f4f7" d="M16 16.283a6.102 6.102 0 0 1-2.904.717c-1.566 0-2.807-.448-3.723-1.343C8.458 14.757 8 13.54 8 12.003c0-1.54.458-2.759 1.373-3.654C10.29 7.45 11.53 7 13.096 7c.525 0 1.029.06 1.512.18.483.121.947.3 1.392.537V9.6a5.243 5.243 0 0 0-1.33-.69c-.436-.147-.736-.22-1.219-.22-.865 0-1.545.284-2.04.852-.496.568-.744 1.463-.744 2.461 0 .994.248 1.887.743 2.455.496.568 1.176.852 2.041.852.483 0 .783-.073 1.22-.22.437-.146.88-.376 1.329-.69v1.883"/></svg>
